src/assets/img/icons/mask/icon-partner-okex.svg

<svg width="153" height="54" viewBox="0 0 153 54" fill="none" xmlns="http://www.w3.org/2000/svg">
<path d="M85.8893 26.9063C85.8893 28.712 85.6087 30.4159 85.022 31.9926C84.4353 33.5948 83.619 34.9681 82.5221 36.1633C81.4252 37.3586 80.0988 38.2996 78.4917 39.0117C76.8846 39.7237 75.0735 40.0543 73.0327 40.0543C70.992 40.0543 69.1809 39.6983 67.5738 39.0117C65.9667 38.2996 64.6402 37.3586 63.5434 36.1633C62.4465 34.9681 61.6047 33.5694 61.0435 31.9926C60.4823 30.3904 60.2017 28.712 60.2017 26.9063C60.2017 25.1261 60.4823 23.4222 61.0435 21.8201C61.6047 20.2179 62.4465 18.8192 63.5434 17.6239C64.6402 16.4286 65.9922 15.4877 67.5738 14.7756C69.1809 14.0635 70.992 13.7329 73.0327 13.7329C75.0735 13.7329 76.8846 14.0889 78.4917 14.7756C80.0988 15.4877 81.4252 16.4286 82.5221 17.6239C83.619 18.8192 84.4353 20.2179 85.022 21.8201C85.6087 23.4222 85.8893 25.1261 85.8893 26.9063ZM73.0582 35.8836C74.3082 35.8836 75.4051 35.6547 76.3234 35.197C77.2673 34.7392 78.0325 34.1034 78.6702 33.315C79.308 32.5012 79.7671 31.5603 80.0732 30.4667C80.3794 29.3732 80.5324 28.1779 80.5324 26.9063C80.5324 25.6348 80.3794 24.4395 80.0732 23.346C79.7671 22.2524 79.308 21.3114 78.6702 20.4976C78.0325 19.6838 77.2673 19.0735 76.3234 18.6157C75.3796 18.158 74.3082 17.9291 73.0582 17.9291C71.8083 17.9291 70.7114 18.158 69.7931 18.6157C68.8492 19.0735 68.084 19.7093 67.4462 20.4976C66.8085 21.3114 66.3494 22.2524 66.0432 23.346C65.7371 24.4395 65.5841 25.6348 65.5841 26.9063C65.5841 28.1779 65.7371 29.3732 66.0432 30.4667C66.3494 31.5603 66.8085 32.5012 67.4462 33.315C68.084 34.1288 68.8492 34.7392 69.7931 35.197C70.7114 35.6547 71.8083 35.8836 73.0582 35.8836ZM89.2565 39.622V14.1907H94.6134V26.3977L103.465 14.1907H109.664L100.276 26.7538L110.302 39.622H103.669L94.5879 27.1352V39.622H89.2565ZM112.444 14.1907H127.775V18.4377H117.827V24.5921H127.316V28.8137H117.827V35.375H127.903V39.622H112.47V14.1907H112.444ZM146.882 14.1907H152.698L144.305 26.83L152.851 39.622H146.984L141.474 30.9499L135.964 39.622H130.097L138.642 26.83L130.25 14.1907H136.066L141.474 22.7865L146.882 14.1907Z" fill="#4D4D5D"/>
<path d="M85.8893 26.9063C85.8893 28.712 85.6087 30.4159 85.022 31.9926C84.4353 33.5948 83.619 34.9681 82.5221 36.1633C81.4252 37.3586 80.0988 38.2996 78.4917 39.0117C76.8846 39.7237 75.0735 40.0543 73.0327 40.0543C70.992 40.0543 69.1809 39.6983 67.5738 39.0117C65.9667 38.2996 64.6402 37.3586 63.5434 36.1633C62.4465 34.9681 61.6047 33.5694 61.0435 31.9926C60.4823 30.3904 60.2017 28.712 60.2017 26.9063C60.2017 25.1261 60.4823 23.4222 61.0435 21.8201C61.6047 20.2179 62.4465 18.8192 63.5434 17.6239C64.6402 16.4286 65.9922 15.4877 67.5738 14.7756C69.1809 14.0635 70.992 13.7329 73.0327 13.7329C75.0735 13.7329 76.8846 14.0889 78.4917 14.7756C80.0988 15.4877 81.4252 16.4286 82.5221 17.6239C83.619 18.8192 84.4353 20.2179 85.022 21.8201C85.6087 23.4222 85.8893 25.1261 85.8893 26.9063ZM73.0582 35.8836C74.3082 35.8836 75.4051 35.6547 76.3234 35.197C77.2673 34.7392 78.0325 34.1034 78.6702 33.315C79.308 32.5012 79.7671 31.5603 80.0732 30.4667C80.3794 29.3732 80.5324 28.1779 80.5324 26.9063C80.5324 25.6348 80.3794 24.4395 80.0732 23.346C79.7671 22.2524 79.308 21.3114 78.6702 20.4976C78.0325 19.6838 77.2673 19.0735 76.3234 18.6157C75.3796 18.158 74.3082 17.9291 73.0582 17.9291C71.8083 17.9291 70.7114 18.158 69.7931 18.6157C68.8492 19.0735 68.084 19.7093 67.4462 20.4976C66.8085 21.3114 66.3494 22.2524 66.0432 23.346C65.7371 24.4395 65.5841 25.6348 65.5841 26.9063C65.5841 28.1779 65.7371 29.3732 66.0432 30.4667C66.3494 31.5603 66.8085 32.5012 67.4462 33.315C68.084 34.1288 68.8492 34.7392 69.7931 35.197C70.7114 35.6547 71.8083 35.8836 73.0582 35.8836ZM89.2565 39.622V14.1907H94.6134V26.3977L103.465 14.1907H109.664L100.276 26.7538L110.302 39.622H103.669L94.5879 27.1352V39.622H89.2565ZM112.444 14.1907H127.775V18.4377H117.827V24.5921H127.316V28.8137H117.827V35.375H127.903V39.622H112.47V14.1907H112.444ZM146.882 14.1907H152.698L144.305 26.83L152.851 39.622H146.984L141.474 30.9499L135.964 39.622H130.097L138.642 26.83L130.25 14.1907H136.066L141.474 22.7865L146.882 14.1907Z" fill="url(#paint0_linear)" fill-opacity="0.4"/>
<g opacity="0.9">
<path d="M27.04 24.4141C33.8024 24.4141 39.2844 18.9488 39.2844 12.207C39.2844 5.46528 33.8024 0 27.04 0C20.2776 0 14.7957 5.46528 14.7957 12.207C14.7957 18.9488 20.2776 24.4141 27.04 24.4141Z" fill="#4D4D5D"/>
<path d="M27.04 24.4141C33.8024 24.4141 39.2844 18.9488 39.2844 12.207C39.2844 5.46528 33.8024 0 27.04 0C20.2776 0 14.7957 5.46528 14.7957 12.207C14.7957 18.9488 20.2776 24.4141 27.04 24.4141Z" fill="url(#paint1_linear)" fill-opacity="0.4"/>
</g>
<g opacity="0.9">
<path d="M27.04 53.9146C33.8024 53.9146 39.2844 48.4493 39.2844 41.7075C39.2844 34.9658 33.8024 29.5005 27.04 29.5005C20.2776 29.5005 14.7957 34.9658 14.7957 41.7075C14.7957 48.4493 20.2776 53.9146 27.04 53.9146Z" fill="#4D4D5D"/>
<path d="M27.04 53.9146C33.8024 53.9146 39.2844 48.4493 39.2844 41.7075C39.2844 34.9658 33.8024 29.5005 27.04 29.5005C20.2776 29.5005 14.7957 34.9658 14.7957 41.7075C14.7957 48.4493 20.2776 53.9146 27.04 53.9146Z" fill="url(#paint2_linear)" fill-opacity="0.4"/>
</g>
<g opacity="0.9">
<path d="M41.8349 39.1641C48.5973 39.1641 54.0793 33.6988 54.0793 26.957C54.0793 20.2153 48.5973 14.75 41.8349 14.75C35.0726 14.75 29.5906 20.2153 29.5906 26.957C29.5906 33.6988 35.0726 39.1641 41.8349 39.1641Z" fill="#4D4D5D"/>
<path d="M41.8349 39.1641C48.5973 39.1641 54.0793 33.6988 54.0793 26.957C54.0793 20.2153 48.5973 14.75 41.8349 14.75C35.0726 14.75 29.5906 20.2153 29.5906 26.957C29.5906 33.6988 35.0726 39.1641 41.8349 39.1641Z" fill="url(#paint3_linear)" fill-opacity="0.4"/>
</g>
<g opacity="0.9">
<path d="M12.2444 39.1641C19.0068 39.1641 24.4887 33.6988 24.4887 26.957C24.4887 20.2153 19.0068 14.75 12.2444 14.75C5.48199 14.75 0 20.2153 0 26.957C0 33.6988 5.48199 39.1641 12.2444 39.1641Z" fill="#4D4D5D"/>
<path d="M12.2444 39.1641C19.0068 39.1641 24.4887 33.6988 24.4887 26.957C24.4887 20.2153 19.0068 14.75 12.2444 14.75C5.48199 14.75 0 20.2153 0 26.957C0 33.6988 5.48199 39.1641 12.2444 39.1641Z" fill="url(#paint4_linear)" fill-opacity="0.4"/>
</g>
<path fill-rule="evenodd" clip-rule="evenodd" d="M24.1448 24.0708C19.7079 22.9984 16.2155 19.5167 15.1399 15.0934C19.5767 16.1658 23.0691 19.6475 24.1448 24.0708Z" fill="#4D4D5D"/>
<path fill-rule="evenodd" clip-rule="evenodd" d="M24.1448 24.0708C19.7079 22.9984 16.2155 19.5167 15.1399 15.0934C19.5767 16.1658 23.0691 19.6475 24.1448 24.0708Z" fill="url(#paint5_linear)" fill-opacity="0.4"/>
<path fill-rule="evenodd" clip-rule="evenodd" d="M15.1399 38.8212C16.2155 34.3979 19.7079 30.9161 24.1448 29.8438C23.0691 34.267 19.5767 37.7488 15.1399 38.8212Z" fill="#4D4D5D"/>
<path fill-rule="evenodd" clip-rule="evenodd" d="M15.1399 38.8212C16.2155 34.3979 19.7079 30.9161 24.1448 29.8438C23.0691 34.267 19.5767 37.7488 15.1399 38.8212Z" fill="url(#paint6_linear)" fill-opacity="0.4"/>
<path fill-rule="evenodd" clip-rule="evenodd" d="M29.9351 29.8438C34.3719 30.9161 37.8643 34.3979 38.9399 38.8212C34.5031 37.7488 31.0107 34.267 29.9351 29.8438Z" fill="#4D4D5D"/>
<path fill-rule="evenodd" clip-rule="evenodd" d="M29.9351 29.8438C34.3719 30.9161 37.8643 34.3979 38.9399 38.8212C34.5031 37.7488 31.0107 34.267 29.9351 29.8438Z" fill="url(#paint7_linear)" fill-opacity="0.4"/>
<path fill-rule="evenodd" clip-rule="evenodd" d="M38.9399 15.0934C37.8643 19.5167 34.3719 22.9984 29.9351 24.0708C31.0107 19.6475 34.5031 16.1658 38.9399 15.0934Z" fill="#4D4D5D"/>
<path fill-rule="evenodd" clip-rule="evenodd" d="M38.9399 15.0934C37.8643 19.5167 34.3719 22.9984 29.9351 24.0708C31.0107 19.6475 34.5031 16.1658 38.9399 15.0934Z" fill="url(#paint8_linear)" fill-opacity="0.4"/>
<defs>
<linearGradient id="paint0_linear" x1="106.526" y1="13.7329" x2="106.526" y2="40.0543" gradientUnits="userSpaceOnUse">
<stop stop-color="white"/>
<stop offset="1" stop-color="white" stop-opacity="0"/>
</linearGradient>
<linearGradient id="paint1_linear" x1="27.04" y1="0" x2="27.04" y2="24.4141" gradientUnits="userSpaceOnUse">
<stop stop-color="white"/>
<stop offset="1" stop-color="white" stop-opacity="0"/>
</linearGradient>
<linearGradient id="paint2_linear" x1="27.04" y1="29.5005" x2="27.04" y2="53.9146" gradientUnits="userSpaceOnUse">
<stop stop-color="white"/>
<stop offset="1" stop-color="white" stop-opacity="0"/>
</linearGradient>
<linearGradient id="paint3_linear" x1="41.8349" y1="14.75" x2="41.8349" y2="39.1641" gradientUnits="userSpaceOnUse">
<stop stop-color="white"/>
<stop offset="1" stop-color="white" stop-opacity="0"/>
</linearGradient>
<linearGradient id="paint4_linear" x1="12.2444" y1="14.75" x2="12.2444" y2="39.1641" gradientUnits="userSpaceOnUse">
<stop stop-color="white"/>
<stop offset="1" stop-color="white" stop-opacity="0"/>
</linearGradient>
<linearGradient id="paint5_linear" x1="19.6423" y1="15.0934" x2="19.6423" y2="24.0708" gradientUnits="userSpaceOnUse">
<stop stop-color="white"/>
<stop offset="1" stop-color="white" stop-opacity="0"/>
</linearGradient>
<linearGradient id="paint6_linear" x1="19.6423" y1="29.8438" x2="19.6423" y2="38.8212" gradientUnits="userSpaceOnUse">
<stop stop-color="white"/>
<stop offset="1" stop-color="white" stop-opacity="0"/>
</linearGradient>
<linearGradient id="paint7_linear" x1="34.4375" y1="29.8438" x2="34.4375" y2="38.8212" gradientUnits="userSpaceOnUse">
<stop stop-color="white"/>
<stop offset="1" stop-color="white" stop-opacity="0"/>
</linearGradient>
<linearGradient id="paint8_linear" x1="34.4375" y1="15.0934" x2="34.4375" y2="24.0708" gradientUnits="userSpaceOnUse">
<stop stop-color="white"/>
<stop offset="1" stop-color="white" stop-opacity="0"/>
</linearGradient>
</defs>
</svg>

<svg xmlns="http://www.w3.org/2000/svg" width="153" height="54" fill="none"><path fill="#4D4D5D" d="M85.89 26.9c0 1.81-.28 3.52-.87 5.1a11.9 11.9 0 01-6.53 7.02c-1.6.7-3.42 1.03-5.46 1.03s-3.85-.35-5.46-1.04A11.9 11.9 0 0161.04 32a15.2 15.2 0 01-.84-5.08c0-1.78.28-3.49.84-5.09.56-1.6 1.4-3 2.5-4.2 1.1-1.2 2.45-2.13 4.03-2.84 1.61-.72 3.42-1.05 5.46-1.05s3.85.36 5.46 1.05a11.9 11.9 0 016.53 7.04c.59 1.6.87 3.3.87 5.09zm-12.83 8.98a6.8 6.8 0 005.61-2.57 8.05 8.05 0 001.4-2.84c.3-1.1.46-2.3.46-3.56 0-1.28-.15-2.47-.46-3.56a8.05 8.05 0 00-1.4-2.85 6.52 6.52 0 00-2.35-1.88 7.34 7.34 0 00-3.26-.7 6.8 6.8 0 00-5.61 2.57 8.06 8.06 0 00-1.4 2.86c-.31 1.09-.47 2.28-.47 3.56 0 1.27.16 2.46.46 3.56.3 1.09.77 2.03 1.4 2.84.64.82 1.4 1.43 2.35 1.89.92.45 2.02.68 3.27.68zm16.2 3.74V14.2h5.35v12.2l8.86-12.2h6.2l-9.4 12.56 10.03 12.87h-6.63l-9.08-12.48v12.48h-5.33zm23.18-25.43h15.34v4.25h-9.95v6.15h9.49v4.22h-9.5v6.57h10.08v4.24h-15.43V14.2h-.03zm34.44 0h5.82l-8.4 12.64 8.55 12.8h-5.87l-5.5-8.68-5.52 8.67h-5.86l8.54-12.79-8.39-12.64h5.82l5.4 8.6 5.41-8.6z"/><path fill="url(#paint0_linear)" fill-opacity=".4" d="M85.89 26.9c0 1.81-.28 3.52-.87 5.1a11.9 11.9 0 01-6.53 7.02c-1.6.7-3.42 1.03-5.46 1.03s-3.85-.35-5.46-1.04A11.9 11.9 0 0161.04 32a15.2 15.2 0 01-.84-5.08c0-1.78.28-3.49.84-5.09.56-1.6 1.4-3 2.5-4.2 1.1-1.2 2.45-2.13 4.03-2.84 1.61-.72 3.42-1.05 5.46-1.05s3.85.36 5.46 1.05a11.9 11.9 0 016.53 7.04c.59 1.6.87 3.3.87 5.09zm-12.83 8.98a6.8 6.8 0 005.61-2.57 8.05 8.05 0 001.4-2.84c.3-1.1.46-2.3.46-3.56 0-1.28-.15-2.47-.46-3.56a8.05 8.05 0 00-1.4-2.85 6.52 6.52 0 00-2.35-1.88 7.34 7.34 0 00-3.26-.7 6.8 6.8 0 00-5.61 2.57 8.06 8.06 0 00-1.4 2.86c-.31 1.09-.47 2.28-.47 3.56 0 1.27.16 2.46.46 3.56.3 1.09.77 2.03 1.4 2.84.64.82 1.4 1.43 2.35 1.89.92.45 2.02.68 3.27.68zm16.2 3.74V14.2h5.35v12.2l8.86-12.2h6.2l-9.4 12.56 10.03 12.87h-6.63l-9.08-12.48v12.48h-5.33zm23.18-25.43h15.34v4.25h-9.95v6.15h9.49v4.22h-9.5v6.57h10.08v4.24h-15.43V14.2h-.03zm34.44 0h5.82l-8.4 12.64 8.55 12.8h-5.87l-5.5-8.68-5.52 8.67h-5.86l8.54-12.79-8.39-12.64h5.82l5.4 8.6 5.41-8.6z"/><g opacity=".9"><path fill="#4D4D5D" d="M27.04 24.41c6.76 0 12.24-5.46 12.24-12.2C39.28 5.47 33.8 0 27.04 0A12.23 12.23 0 0014.8 12.2c0 6.75 5.48 12.21 12.24 12.21z"/><path fill="url(#paint1_linear)" fill-opacity=".4" d="M27.04 24.41c6.76 0 12.24-5.46 12.24-12.2C39.28 5.47 33.8 0 27.04 0A12.23 12.23 0 0014.8 12.2c0 6.75 5.48 12.21 12.24 12.21z"/></g><g opacity=".9"><path fill="#4D4D5D" d="M27.04 53.91c6.76 0 12.24-5.46 12.24-12.2 0-6.74-5.48-12.21-12.24-12.21A12.23 12.23 0 0014.8 41.7c0 6.75 5.48 12.21 12.24 12.21z"/><path fill="url(#paint2_linear)" fill-opacity=".4" d="M27.04 53.91c6.76 0 12.24-5.46 12.24-12.2 0-6.74-5.48-12.21-12.24-12.21A12.23 12.23 0 0014.8 41.7c0 6.75 5.48 12.21 12.24 12.21z"/></g><g opacity=".9"><path fill="#4D4D5D" d="M41.83 39.16c6.77 0 12.25-5.46 12.25-12.2 0-6.74-5.48-12.21-12.25-12.21a12.23 12.23 0 00-12.24 12.2c0 6.75 5.48 12.21 12.24 12.21z"/><path fill="url(#paint3_linear)" fill-opacity=".4" d="M41.83 39.16c6.77 0 12.25-5.46 12.25-12.2 0-6.74-5.48-12.21-12.25-12.21a12.23 12.23 0 00-12.24 12.2c0 6.75 5.48 12.21 12.24 12.21z"/></g><g opacity=".9"><path fill="#4D4D5D" d="M12.24 39.16c6.77 0 12.25-5.46 12.25-12.2 0-6.74-5.48-12.21-12.25-12.21A12.23 12.23 0 000 26.95c0 6.75 5.48 12.21 12.24 12.21z"/><path fill="url(#paint4_linear)" fill-opacity=".4" d="M12.24 39.16c6.77 0 12.25-5.46 12.25-12.2 0-6.74-5.48-12.21-12.25-12.21A12.23 12.23 0 000 26.95c0 6.75 5.48 12.21 12.24 12.21z"/></g><path fill="#4D4D5D" fill-rule="evenodd" d="M24.14 24.07a12.25 12.25 0 01-9-8.98 12.25 12.25 0 019 8.98z" clip-rule="evenodd"/><path fill="url(#paint5_linear)" fill-opacity=".4" fill-rule="evenodd" d="M24.14 24.07a12.25 12.25 0 01-9-8.98 12.25 12.25 0 019 8.98z" clip-rule="evenodd"/><path fill="#4D4D5D" fill-rule="evenodd" d="M15.14 38.82a12.24 12.24 0 019-8.98 12.25 12.25 0 01-9 8.98z" clip-rule="evenodd"/><path fill="url(#paint6_linear)" fill-opacity=".4" fill-rule="evenodd" d="M15.14 38.82a12.24 12.24 0 019-8.98 12.25 12.25 0 01-9 8.98z" clip-rule="evenodd"/><path fill="#4D4D5D" fill-rule="evenodd" d="M29.94 29.84a12.24 12.24 0 019 8.98 12.25 12.25 0 01-9-8.98z" clip-rule="evenodd"/><path fill="url(#paint7_linear)" fill-opacity=".4" fill-rule="evenodd" d="M29.94 29.84a12.24 12.24 0 019 8.98 12.25 12.25 0 01-9-8.98z" clip-rule="evenodd"/><path fill="#4D4D5D" fill-rule="evenodd" d="M38.94 15.1a12.25 12.25 0 01-9 8.97 12.25 12.25 0 019-8.98z" clip-rule="evenodd"/><path fill="url(#paint8_linear)" fill-opacity=".4" fill-rule="evenodd" d="M38.94 15.1a12.25 12.25 0 01-9 8.97 12.25 12.25 0 019-8.98z" clip-rule="evenodd"/><defs><linearGradient id="paint0_linear" x1="106.526" x2="106.526" y1="13.733" y2="40.054" gradientUnits="userSpaceOnUse"><stop stop-color="#fff"/><stop offset="1" stop-color="#fff" stop-opacity="0"/></linearGradient><linearGradient id="paint1_linear" x1="27.04" x2="27.04" y1="0" y2="24.414" gradientUnits="userSpaceOnUse"><stop stop-color="#fff"/><stop offset="1" stop-color="#fff" stop-opacity="0"/></linearGradient><linearGradient id="paint2_linear" x1="27.04" x2="27.04" y1="29.5" y2="53.915" gradientUnits="userSpaceOnUse"><stop stop-color="#fff"/><stop offset="1" stop-color="#fff" stop-opacity="0"/></linearGradient><linearGradient id="paint3_linear" x1="41.835" x2="41.835" y1="14.75" y2="39.164" gradientUnits="userSpaceOnUse"><stop stop-color="#fff"/><stop offset="1" stop-color="#fff" stop-opacity="0"/></linearGradient><linearGradient id="paint4_linear" x1="12.244" x2="12.244" y1="14.75" y2="39.164" gradientUnits="userSpaceOnUse"><stop stop-color="#fff"/><stop offset="1" stop-color="#fff" stop-opacity="0"/></linearGradient><linearGradient id="paint5_linear" x1="19.642" x2="19.642" y1="15.093" y2="24.071" gradientUnits="userSpaceOnUse"><stop stop-color="#fff"/><stop offset="1" stop-color="#fff" stop-opacity="0"/></linearGradient><linearGradient id="paint6_linear" x1="19.642" x2="19.642" y1="29.844" y2="38.821" gradientUnits="userSpaceOnUse"><stop stop-color="#fff"/><stop offset="1" stop-color="#fff" stop-opacity="0"/></linearGradient><linearGradient id="paint7_linear" x1="34.438" x2="34.438" y1="29.844" y2="38.821" gradientUnits="userSpaceOnUse"><stop stop-color="#fff"/><stop offset="1" stop-color="#fff" stop-opacity="0"/></linearGradient><linearGradient id="paint8_linear" x1="34.438" x2="34.438" y1="15.093" y2="24.071" gradientUnits="userSpaceOnUse"><stop stop-color="#fff"/><stop offset="1" stop-color="#fff" stop-opacity="0"/></linearGradient></defs></svg>
